Papirus/22x22/actions/format-segment-line.svg

<?xml version="1.0" encoding="UTF-8" standalone="no"?>
<!--Created with Inkscape (http://www.inkscape.org/)-->
<svg id="svg3815" xmlns:rdf="http://www.w3.org/1999/02/22-rdf-syntax-ns#" xmlns="http://www.w3.org/2000/svg" height="22" width="22" version="1.1" xmlns:cc="http://creativecommons.org/ns#" xmlns:xlink="http://www.w3.org/1999/xlink" xmlns:dc="http://purl.org/dc/elements/1.1/">
 <defs id="defs3817">
 </defs>
 <metadata id="metadata3820">
  <rdf:RDF>
   <cc:Work rdf:about="">
    <dc:format>image/svg+xml</dc:format>
    <dc:type rdf:resource="http://purl.org/dc/dcmitype/StillImage"/>
    <dc:title/>
   </cc:Work>
  </rdf:RDF>
 </metadata>
 <g id="layer1" transform="translate(-461.71 -525.79)">
  <path id="path4166" opacity=".5" d="m15 4v1 1 0.3125l-8.6875 8.6875h-0.3125-1-1v3h3v-2.312l8.688-8.688h2.312v-3h-3z" transform="translate(461.71 525.79)"/>
 </g>
</svg>

<?xml version="1.0" encoding="UTF-8" standalone="no"?>
<!--Created with Inkscape (http://www.inkscape.org/)-->
<svg xmlns:dc="http://purl.org/dc/elements/1.1/" xmlns:cc="http://creativecommons.org/ns#" xmlns:rdf="http://www.w3.org/1999/02/22-rdf-syntax-ns#" xmlns:svg="http://www.w3.org/2000/svg" xmlns="http://www.w3.org/2000/svg" xmlns:xlink="http://www.w3.org/1999/xlink" xmlns:sodipodi="http://sodipodi.sourceforge.net/DTD/sodipodi-0.dtd" xmlns:inkscape="http://www.inkscape.org/namespaces/inkscape" width="22" height="22" id="svg3815" version="1.1" inkscape:version="0.91 r13725" sodipodi:docname="format-segment-line.svg">
    <defs id="defs3817">
        <style type="text/css" id="current-color-scheme">
            .ColorScheme-Text { color:#4d4d4d; } .ColorScheme-Background { color:#eff0f1; } .ColorScheme-Highlight { color:#3daee9; } .ColorScheme-ViewText { color:#31363b; } .ColorScheme-ViewBackground { color:#fcfcfc; } .ColorScheme-ViewHover { color:#93cee9; } .ColorScheme-ViewFocus{ color:#3daee9; } .ColorScheme-ButtonText { color:#31363b; } .ColorScheme-ButtonBackground { color:#eff0f1; } .ColorScheme-ButtonHover { color:#93cee9; } .ColorScheme-ButtonFocus{ color:#3daee9; }
        </style>
        <linearGradient inkscape:collect="always" id="linearGradient4300-8">
            <stop style="stop-color:#f27935;stop-opacity:1" offset="0" id="stop4302-5"/>
            <stop style="stop-color:#f2784b;stop-opacity:1" offset="1" id="stop4304-7"/>
        </linearGradient>
        <linearGradient gradientUnits="userSpaceOnUse" y2="47" x2="47" y1="61" x1="47" id="linearGradient4357" xlink:href="#linearGradient4351" inkscape:collect="always"/>
        <linearGradient id="linearGradient4410" inkscape:collect="always">
            <stop id="stop4412" offset="0" style="stop-color:#383e51;stop-opacity:1"/>
            <stop id="stop4414" offset="1" style="stop-color:#655c6f;stop-opacity:0"/>
        </linearGradient>
        <linearGradient gradientUnits="userSpaceOnUse" y2="17" x2="40" y1="31" x1="54" id="linearGradient4427" xlink:href="#linearGradient4410" inkscape:collect="always" gradientTransform="matrix(1,0,0,-1,-14,78)"/>
        <linearGradient gradientUnits="userSpaceOnUse" y2="3" x2="32" y1="61" x1="32" id="linearGradient4306" xlink:href="#linearGradient4300-8" inkscape:collect="always"/>
        <linearGradient id="linearGradient4351" inkscape:collect="always">
            <stop id="stop4353" offset="0" style="stop-color:#f7ab89;stop-opacity:1"/>
            <stop id="stop4355" offset="1" style="stop-color:#f9bda3;stop-opacity:1"/>
        </linearGradient>
        <linearGradient inkscape:collect="always" xlink:href="#linearGradient4410" id="linearGradient3444" gradientUnits="userSpaceOnUse" gradientTransform="matrix(1,0,0,-1,503.93261,656.69754)" x1="54" y1="31" x2="40" y2="17"/>
        <linearGradient inkscape:collect="always" xlink:href="#linearGradient4351" id="linearGradient3447" gradientUnits="userSpaceOnUse" x1="47" y1="61" x2="47" y2="47" gradientTransform="translate(517.93261,578.69754)"/>
        <linearGradient inkscape:collect="always" xlink:href="#linearGradient4300-8" id="linearGradient3452" gradientUnits="userSpaceOnUse" x1="32" y1="61" x2="32" y2="3" gradientTransform="translate(517.93261,578.69754)"/>
    </defs>
    <sodipodi:namedview id="base" pagecolor="#000000" bordercolor="#666666" borderopacity="1.0" inkscape:pageopacity="0.0" inkscape:pageshadow="2" inkscape:zoom="19.430872" inkscape:cx="-10.95965" inkscape:cy="5.7250927" inkscape:document-units="px" inkscape:current-layer="layer1" showgrid="false" fit-margin-top="0" fit-margin-left="0" fit-margin-right="0" fit-margin-bottom="0" inkscape:window-width="1600" inkscape:window-height="847" inkscape:window-x="0" inkscape:window-y="30" inkscape:window-maximized="1" inkscape:showpageshadow="false" borderlayer="false" showguides="false" inkscape:snap-intersection-paths="false" inkscape:snap-bbox="true" inkscape:object-nodes="true">
        <sodipodi:guide position="2.0000044,19.999979" orientation="18,0" id="guide3338"/>
        <sodipodi:guide position="2.0000044,1.9999785" orientation="0,18" id="guide3340"/>
        <sodipodi:guide position="20.000004,1.9999785" orientation="-18,0" id="guide3342"/>
        <sodipodi:guide position="20.000004,19.999979" orientation="0,-18" id="guide3344"/>
        <sodipodi:guide position="3.0000044,18.999979" orientation="16,0" id="guide3346"/>
        <sodipodi:guide position="3.0000044,2.9999785" orientation="0,16" id="guide3348"/>
        <sodipodi:guide position="19.000004,2.9999785" orientation="-16,0" id="guide3350"/>
        <sodipodi:guide position="17,19" orientation="0,-16" id="guide3352"/>
        <inkscape:grid type="xygrid" id="grid3354"/>
    </sodipodi:namedview>
    <metadata id="metadata3820">
        <rdf:RDF>
            <cc:Work rdf:about="">
                <dc:format>
                    image/svg+xml
                </dc:format>
                <dc:type rdf:resource="http://purl.org/dc/dcmitype/StillImage"/>
                <dc:title/>
            </cc:Work>
        </rdf:RDF>
    </metadata>
    <g inkscape:label="Capa 1" inkscape:groupmode="layer" id="layer1" transform="translate(-461.71429,-525.79075)">
        <path style="opacity:0.5;fill:#000000;fill-opacity:1;stroke:none" d="M 15 4 L 15 5 L 15 6 L 15 6.3125 L 6.3125 15 L 6 15 L 5 15 L 4 15 L 4 18 L 7 18 L 7 15.6875 L 15.6875 7 L 18 7 L 18 4 L 15 4 z " transform="translate(461.71429,525.79075)" id="path4166"/>
    </g>
</svg>
